X: 24982
T: Maid Of Mount Kisco, The
R: reel
M: 4/4
K: Adorian
G|:"Am"EA{c}A G/A/B GAG|EA{c}A G/A/B GAG|"G" DG {B}G/A/G BGAG|
DG {B}G/A/G EGDG|"Am" EA{c}A G/A/B GAG|EA{c}A G/A/B ABd|
"G" eg{b}g f/g/a geg|1 dBGB "Am" A3 G:|2 dBGB "Am" A2 cB||
|:"Am" (3ABA {c}AB dBAB|"G" G2 BG DGBG|"Am" (3ABA {c}A B "G" d2 (3Bcd|
[1 "Em" eg (3fga "G" gedB:|2 "Em" eg (3fga "G" gedg||
|:"Am" ea{c'}ag {d'}bf/g/af|"G" gedB GABd|"Am" ea{c'}ag {d'}bf/g/af|
"Em" gede "G" g2 eg|"Am" {c'}a>baf "C" {b}g>age|"G" {f}d>edB GABd|
"Am" eA {c}(3ABA "Em" efge|1 "G" dBGB "Am" A3g:|2 "G"dBGB "Am" A4||

